X:1
T:Chi vuol veder amanti
T:Luca Marenzio
T:Source  : Il terzo libro delle Villanelle a tre voci---Venetia---G.Vincenzi---1587. Editor : André Vierendeels (19/05/17).
T:Notes : Original clefs :  G2, C2, F3 Editorial accidentals above the staff Original note values have been halved in 3-beat measures m 7 in S 2 : second "G" not dotted in original print m 11 in S 1 : first "A" not in original print m 13in S 2 : "C" notated as "D" in original print m 20 in S 2 : one "G" to many in original print In S 2 : first bar line notated in C2   
T:#
T:-natural
T:Chi vuol veder amanti
T:©
T:©
T:©
C:Luca Marenzio
Z:©
%%score [ 1 2 3 ]
L:1/8
Q:1/4=120
M:4/4
K:C
V:1 treble nm="Soprano 1" snm="S 1"
V:2 treble nm="Soprano 2" snm="S 2"
V:3 treble-8 nm="Tenor" snm="T"
V:1
"^1)" G4 A2 B2 | c2 A2 B4 | B4 e4 | d2 c3 d ef | g2 fe d4 | c8 :: e2 ee d2 B2 |"^4)" c4 B2 c2- | %8
w: Chi vuol ve-|der a- man-|t'in ter-|ra'il cie- * * *||lo,|ven- ghi'à ve- der co-|stei ch'e per-|
w: Ha l'Am- pio|Cie- lo'il sol,|che qua|giu splen- * * *||de,|c'ho- ra'il suol ve- ste'hor|le cam- pa-|
 c2 B2 A4- | A4 A4 | z2 d2 d2 d2 | B2 G2 GABc | d4 B2 g2 | g2 g2 e2 c2 | cdef g4 | e8 | %16
w: * me'un gie-|* lo,|che por- ta|nel bel vi- * * *|* so, che|por- ta nel bel|vi- * * * *|so,|
w: * gne'in- cen-|* de;|Que- sta s'un|guar- do mo- * * *|* ve, que-|sta s'un guar- do|mo- * * * *|ve'in-|
[M:6/4] c3 c B2 A4 d2 | c3 d c2 B2 A4 | G12 :| %19
w: quant' ha di bel e|va- go'il Pa- ra- di-|so.|
w: cen- de si ma dol-|c'e gio- i- a pro-|ve.|
V:2
"^2)""^1)" z2 G2 ^F2 G2 | E2 ^F2 G4 | G4 G3 A | B2 G2 G3 A | B2 c4 B2 | c8 :: z2 G2 G3 G | %7
w: Chi vuol ve-|der a- man-|t'in ter- *|* ra'il cie- *||lo,|ven ghi'à- ve-|
w: Hà le sue|stel- le'il cie-|lo, hà _|_ l'ar- mo- *|* ni- *|a,|che ren- de|
 E2 F2 G2 G2 | A2 G2 ^F4- | F4 ^F4 | z4 z2 d2 | d2 d2 B2 G2 | GABc d4 | c2 G2 G2 G2 | E2 C2 EDEF | %15
w: der co- stei ch'e|per me'un gie-|* lo,|Che|por- ta nel bel|vi- * * * *|so, che por- ta|nel bel vi- * * *|
w: la su pa- ga'o-|gn'al- ma pi-|* a,|que-|sta hà stel- le'ha|con- * * * cen-|to, que- sta hà|stel- le'hà con- * * *|
 G4 E4 |[M:6/4] A3 A G2 ^F4 G2 | E3 D G2 G4 ^F2 | G12 :| %19
w: * so,|quant' ha di bel e|va- go'il Pa- ra- di-|so.|
w: ten- to,|che fer- ma per dir-|o- gni'e- le- men- *|to.|
V:3
"^3)" z8 | z8 |"^#""^1)" z2 G2 CDEF | G2 C2 c3 B/G/ | G8 | C8 :: c2 cc B2 G2 | A4 E4 | F2 G2 D4- | %9
w: ||In ter- * * *|ra il cie- * *||lo,|ven- ghi'à ve- der co-|stei ch'e|per- me'un gie-|
w: ||Il so- * * *|l'e le sue- * *|stel-|le|a me cru- do'il suo|ciel, sue|lu- ci, bel-|
 D4 D4 | G8 | G8 | G8 | c4 c4 | c8 | c8 |[M:6/4] F3 F G2 D4 B,2 | C3 B, C2 E2 D4 | G12 :| %19
w: * lo,|Che|por-|ta|nel bel|vi-|so,|quant' ha di bel e|va- go'il Pa- ra- di-|so.|
w: * le,|e|que-|st'A-|man- ti'è|quel-|la,|che'l vul- go per mio|mal LA- VI- NIA'ap- pel-|la.|

